src/16/actions/boundingbox_top_left.svg

<svg xmlns="http://www.w3.org/2000/svg" width="16" height="16" viewBox="0 0 16 16">
 <defs>
  <style id="current-color-scheme" type="text/css">
   .ColorScheme-Text { color:#565656; } .ColorScheme-Highlight { color:#5294e2; }
  </style>
 </defs>
 <path style="fill:currentColor" class="ColorScheme-Text" d="M 5 0 C 4.833 0.000103 4.6661 0.008581625 4.5 0.025390625 C 4.33259 0.042000625 4.1679994 0.066899375 4.0058594 0.099609375 C 3.9919394 0.10240938 3.9787237 0.106475 3.9648438 0.109375 C 3.6606437 0.173985 3.3631219 0.26683875 3.0761719 0.38671875 C 3.0685519 0.38991875 3.0603344 0.39133125 3.0527344 0.39453125 L 3.0371094 0.40234375 C 2.7596394 0.52191375 2.4935775 0.66638438 2.2421875 0.83398438 C 2.2259075 0.84478438 2.2075463 0.85229125 2.1914062 0.86328125 C 1.9435062 1.0334013 1.7114469 1.2256 1.4980469 1.4375 C 1.4832469 1.4521 1.467825 1.4656688 1.453125 1.4804688 C 1.251425 1.6855688 1.0677969 1.9078313 0.90429688 2.1445312 C 0.88101687 2.1778313 0.85451125 2.2082875 0.83203125 2.2421875 C 0.67964125 2.4754875 0.54700688 2.7210625 0.43554688 2.9765625 C 0.41627687 3.0198625 0.39502312 3.0614687 0.37695312 3.1054688 C 0.26916312 3.3698687 0.18421688 3.642975 0.12304688 3.921875 C 0.11137687 3.974775 0.097890625 4.0264781 0.087890625 4.0800781 C 0.074410625 4.1559781 0.062734375 4.2321938 0.052734375 4.3085938 C 0.040874375 4.3941937 0.028984375 4.4795063 0.021484375 4.5664062 C 0.008104375 4.7106062 0.00088 4.8552 0 5 C 0.001886 5.2644 0.024786375 5.5282625 0.068359375 5.7890625 C 0.075249375 5.8319625 0.079888625 5.8752688 0.087890625 5.9179688 C 0.13500062 6.1667687 0.20094625 6.4115906 0.28515625 6.6503906 C 0.29695625 6.6839906 0.30977562 6.7167 0.32226562 6.75 C 0.41200562 6.9924 0.52040438 7.227525 0.64648438 7.453125 C 0.65514437 7.468425 0.66502812 7.4828469 0.67382812 7.4980469 C 0.80554812 7.7263469 0.95514375 7.9437375 1.1210938 8.1484375 C 1.1252937 8.1535375 1.1287125 8.1589625 1.1328125 8.1640625 C 1.3005125 8.3670625 1.4840406 8.5564688 1.6816406 8.7304688 C 1.7038406 8.7501687 1.7255469 8.7697625 1.7480469 8.7890625 C 1.9470469 8.9611625 2.1592125 9.1172594 2.3828125 9.2558594 C 2.3947125 9.2631594 2.4079219 9.2681906 2.4199219 9.2753906 C 2.9058219 9.5690906 3.4381406 9.7777781 3.9941406 9.8925781 C 3.9962406 9.8930781 3.9979 9.8941312 4 9.8945312 L 4 16 L 6 16 L 6 9.8984375 C 6.2234 9.8510375 6.4433031 9.7884375 6.6582031 9.7109375 C 6.6949031 9.6980375 6.7312781 9.685575 6.7675781 9.671875 C 7.1876781 9.512875 7.5844656 9.2981031 7.9472656 9.0332031 C 7.9772656 9.0113031 8.0056562 8.9874438 8.0351562 8.9648438 C 8.2104562 8.8320438 8.3769031 8.6879031 8.5332031 8.5332031 C 8.6939031 8.3711031 8.8433687 8.198225 8.9804688 8.015625 C 8.9994188 7.990595 9.0166762 7.9648531 9.0351562 7.9394531 C 9.1578963 7.7721131 9.2700837 7.5972956 9.3710938 7.4160156 C 9.3811338 7.3978356 9.3905906 7.3796381 9.4003906 7.3613281 C 9.5123206 7.1548881 9.6095663 6.9408131 9.6914062 6.7207031 C 9.6922062 6.7187031 9.6926534 6.7167438 9.6933594 6.7148438 L 9.6972656 6.703125 C 9.7790456 6.476365 9.8443181 6.2439925 9.8925781 6.0078125 C 9.8931781 6.0052125 9.8939893 6.0027 9.8945312 6 L 16 6 L 16 4 L 9.8984375 4 C 9.8420375 3.7316 9.7636625 3.4682906 9.6640625 3.2128906 C 9.6538925 3.1863106 9.6453656 3.1591625 9.6347656 3.1328125 C 9.5408756 2.9022025 9.4298944 2.6789238 9.3027344 2.4648438 C 9.2742344 2.4164838 9.2448837 2.3695056 9.2148438 2.3222656 C 9.0860238 2.1167856 8.9424062 1.9209581 8.7851562 1.7363281 C 8.7628063 1.7104181 8.7377037 1.6875394 8.7148438 1.6621094 C 8.5596337 1.4892294 8.3925638 1.3273844 8.2148438 1.1777344 C 8.1882637 1.1553744 8.1637487 1.131175 8.1367188 1.109375 C 7.9470588 0.958295 7.7466594 0.82121875 7.5371094 0.69921875 C 7.4910194 0.67198875 7.4454275 0.64490063 7.3984375 0.61914062 C 7.1884875 0.50337063 6.9704738 0.40284938 6.7460938 0.31835938 C 6.7022807 0.30199937 6.6576372 0.2885975 6.6132812 0.2734375 C 6.3819213 0.1930075 6.1449469 0.12968437 5.9042969 0.083984375 C 5.8904769 0.081484375 5.8771312 0.078571875 5.8632812 0.076171875 C 5.5782712 0.025841875 5.28942 0.000357 5 0 z"/>
</svg>

<svg xmlns="http://www.w3.org/2000/svg" width="16" height="16"><defs><style id="current-color-scheme" type="text/css"></style></defs><path d="M5 0a4.997 4.997 0 0 0-.994.1c-.014.002-.027.006-.041.01a5 5 0 0 0-.889.277C3.07.39 3.06.39 3.053.395l-.016.007a5 5 0 0 0-.795.432c-.016.01-.034.018-.05.03-.248.17-.48.362-.694.574l-.045.042a5 5 0 0 0-.549.665c-.023.033-.05.063-.072.097a4.995 4.995 0 0 0-.396.735c-.02.043-.041.084-.059.128a5 5 0 0 0-.254.817c-.012.053-.025.104-.035.158a5.07 5.07 0 0 0-.035.229c-.012.085-.024.17-.032.257-.013.145-.02.29-.021.434.002.264.025.528.068.79.007.042.012.085.02.128.047.249.113.494.197.732l.037.1c.09.242.198.478.324.703l.028.045c.132.228.281.446.447.65l.012.016c.168.203.351.392.549.566l.066.06c.199.171.411.327.635.466.012.007.025.012.037.02a4.996 4.996 0 0 0 1.574.617L4 9.895V16h2V9.898c.223-.047.443-.11.658-.187.037-.013.073-.025.11-.04.42-.158.816-.373 1.18-.638.03-.022.058-.046.087-.068a5 5 0 0 0 .498-.432c.16-.162.31-.335.447-.517.02-.025.037-.051.055-.077a5 5 0 0 0 .336-.523l.03-.055a5 5 0 0 0 .29-.64l.002-.006.004-.012a5 5 0 0 0 .196-.695L9.895 6H16V4H9.898a4.992 4.992 0 0 0-.234-.787c-.01-.027-.019-.054-.03-.08a5 5 0 0 0-.42-.81 4.998 4.998 0 0 0-.429-.587c-.022-.026-.047-.048-.07-.074a5 5 0 0 0-.5-.484c-.027-.023-.051-.047-.078-.069a5 5 0 0 0-.6-.41L7.398.62a5 5 0 0 0-.652-.3c-.044-.017-.088-.03-.133-.046a5 5 0 0 0-.709-.189l-.04-.008A5 5 0 0 0 5 0z" fill="currentColor" color="#565656"/></svg>
